X:1
T:Swan Song Seranade, D957, No.4
T:Franz Schubert (1797 - 1828) 
T:        Arranged By Hans-Gunter Heumann 
%%score { 1 | 2 }
L:1/8
Q:1/4=76
M:3/4
K:F
V:1 treble nm="Part 1"
V:2 bass 
V:1
"^Moderato"!pp! z .!1!!2![A,D].[DF].[A,D].[DF].[A,D] | z .!1!!2![B,D].[DF].[B,D].[DF].[B,D] | %2
 z .[B,D].[DE].[B,D].[DE].[B,D] | z .!1!!2![A,^C].[CE].[A,C].[CE].[A,C] | (3(!1!AB)A !4!d3 A | %5
 (3(GA)!1!G d2 G z | !>!A3 G (3!2!GFE | F4 z2 | !1![ca]3 !tenuto!!2!!4![eg] (3[eg]fe | %9
 !1!!2![df]6 | (3(!1!AB)A f3 A | (3(!2!G!2!A)!1!G e3 d | c3 B (3!2!BAG | A4 z!p! ([Fd] | %14
 [Ec]3 B) (3(!4!BAG) | [FA]6 | !1!A>^c f3 e | !2!d>!1!A F3 D |{!2!Bc} (3BAB d3 B | A6 | %20
{!1!GA} (3(!2!G^F)!1!G !>!B3 !tenuto!G | !1!=F6 | !1!A>^c f3 e | d>A !tenuto!^F3 D | %24
({!2!=B^c)} (3B^A!1!B d3 B | !1!=A6 |!f! (3(!2!e^d)e g3 ^c | =d6 | %28
!mf! (!1!!2![GB]4 !>![Bd]>!1!!4![GB]) | !2![^FA]3 (.[FA].[FA].[FA]) | [GA]3 (!1![^CA][EA].[GA]) | %31
 [^FA]4 !2![FA]2!pp! |!mf! (!1![G=B]4 !>!!2![Bd]>!1![GB]) | !2![^FA]3 (.[FA].[FA].[FA]) | %34
 [GA]3 (.[^CA].[EA][GA]) | [^FA]6 | (3(AB)A d3 A | (3GAG d2 G z | A3 G (3GFE | F4 z2 | %40
!p! [^ca]3 [eg] (3[eg]fe | [df]6 | (3(AB)A f3 A | (3(GA)G e3 d | c3 B (3(BA)G | A4 z [Fd] | %46
 [Ec]3 B (3B(AG) | [FA]6 |"_cresc." A>^c f3 e | d>A F3 D |{Bc} (3(BA)B d3 B | A6 | %52
{GA} (3(G^F)G B3 G | =F6 | A>^c f3 e | d>A ^F3 D |{=B^c} (3B^AB d3 B | =A6 | (3(e^d)e g3 ^c | d6 | %60
"_cresc." !1!A>A ^c>c e>e | d2 ^c2 z2 | A3 ^c e>d | ^c4 z2 | ^f3 e (3(ed)^c | =B>^c !>!d2 B z | %66
 =B>^c (!>!d2 B) z | =B>^c (!>!d2 B) z |{=B^c} (3(B^A)B d3 B | =A6 | (3(e^d)e !>!g3 ^c | =d6- | %72
 d2 z2 d2 |"_decresc." [EB]6 | [^CA]6 | [D^F]4!mf! [FA]2 | [GB]4 !>![Bd]>[GB] | %77
 [^FA]3 (.[FA].[FA].[FA]) | [GA]3 (.[^CA].[EA].[GA]) |!p! [^FA]6 | [D^FA]6 | [D^FA]6 || %82
V:2
 !1!D,4 z2 | B,,4 z2 | G,,4 z2 | !4!A,,4 z2 | D,!4![F,A,]!1![A,D][F,A,][A,D][F,A,] | %5
 B,,!4![G,B,]!1![B,D][G,B,][B,D][G,B,] | A,,!2![G,A,]!1![A,^C][G,A,][A,C][G,A,] | %7
 D,[F,A,][A,D][F,A,][A,D][F,A,] |!p! A,,[G,A,][A,^C][G,A,][A,C][G,A,] | %9
 D,[F,A,][A,D][F,A,][A,D][F,A,] | D,[F,A,][A,D][F,A,][A,D][F,A,] | %11
 B,,[G,B,][B,D][G,B,][B,D][G,B,] | C,[B,C][CE][B,C][CE][B,C] | F,,[A,C][CF][A,C][CF][A,C] | %14
 C,[B,C][CE][B,C][CE][B,C] | F,,[F,A,][A,C][F,A,][A,C][F,A,] | A,,[G,A,][A,^C][G,A,][A,C][G,A,] | %17
 D,[F,A,][A,D][F,A,][A,D][F,A,] | B,,[B,D][DF][B,D][DF][B,D] | F,,[A,C][CF][A,C][CF][A,C] | %20
 C,[B,C][CE][B,C][CE][B,C] | F,,[F,A,][A,C][F,A,][A,C][F,A,] | A,,[G,A,][A,^C][G,A,][A,C][G,A,] | %23
 D,[^F,A,][A,D][F,A,][A,D][F,A,] | G,,[G,=B,][B,D][G,B,][B,D][G,B,] | %25
 D,[^F,A,][A,D][F,A,][A,D][F,A,] | A,,[G,A,][A,^C][G,A,][A,C][G,A,] | %27
 D,[^F,A,][A,D][F,A,][A,D][F,A,] | D,[G,_B,][B,D][G,B,][B,D][G,B,] | %29
 D,[^F,A,][A,D][F,A,][A,D][F,A,] | A,,[G,A,][A,^C][G,A,][A,C][G,A,] | %31
 D,[^F,A,][A,D][F,A,][A,D][F,A,] | D,[G,=B,][B,D][G,B,][B,D][G,B,] | %33
 D,[^F,A,][A,D][F,A,][A,D][F,A,] | A,,[G,A,][A,^C][G,A,][A,C][G,A,] | %35
 D,[^F,A,][A,D][F,A,][A,D][F,A,] | D,[=F,A,][A,D][F,A,][A,D][F,A,] | %37
 B,,[G,B,][B,D][G,B,][B,D][G,B,] | A,,[G,A,][A,^C][G,A,][A,C][G,A,] | %39
 D,[F,A,][A,D][F,A,][A,D][F,A,] | A,,[G,A,][A,^C][G,A,][A,C][G,A,] | %41
 D,[F,A,][A,D][F,A,][A,D][F,A,] | D,[F,A,][A,D][F,A,][A,D][F,A,] | %43
 B,,[G,B,][B,D][G,B,][B,D][G,B,] | C,[B,C][CE][B,C][CE][B,C] | F,,[A,C][CF][A,C][CF][A,C] | %46
 C,[B,C][CE][B,C][CE][B,C] | F,,[F,A,][A,C][F,A,][A,C][F,A,] | A,,[G,A,][A,^C][G,A,][A,C][G,A,] | %49
 D,[F,A,][A,D][F,A,][A,D][F,A,] |!pp! B,,[B,D][DF][B,D][DF][B,D] | F,,[A,C][CF][A,C][CF][A,C] | %52
 C,[B,C][CE][B,C][CE][B,C] | F,,[F,A,][A,C][F,A,][A,C][F,A,] | A,,[G,A,][A,^C][G,A,][A,C][G,A,] | %55
 D,[^F,A,][A,D][F,A,][A,D][F,A,] | G,,[G,=B,][B,D][G,B,][B,D][G,B,] | %57
 D,[^F,A,][A,D][F,A,][A,D][F,A,] |!f! A,,[G,A,][A,^C][G,A,][A,C][G,A,] | %59
 D,[^F,A,][A,D][F,A,][A,D][F,A,] | A,,.[A,^C][CE][A,C]!>![_B,C][CE] | %61
 A,,[A,^C][CE][A,C]!>![B,C][CE] | A,,[^CE]A,[CE]!>![B,C][CE] | A,,[A,^C][CE][A,C]!>![B,C][CE] | %64
!f! ^A,,[^F,^A,]!>(![A,E][F,A,][A,E][F,A,]!>)! | =B,,[^F,=B,][B,D][F,B,][B,D][F,B,] | %66
!f! =B,,[G,=B,][B,E][G,B,][B,E][G,B,] | =B,,[^F,=B,][B,D][F,B,][B,D][F,B,] | %68
!p! G,,[G,=B,][B,D][G,B,][B,D][G,B,] | D,[^F,A,][A,D][F,A,][A,D][F,A,] | %70
!f! A,,[G,A,][A,^C][G,A,][A,C][G,A,] | D,[^F,A,][A,D][F,A,][A,D][F,A,] | %72
 D,[=F,A,][A,D][F,A,][A,D][F,A,] | G,,[G,_B,][B,D][G,B,][B,D][G,B,] | %74
 A,,[G,A,][A,^C][G,A,][A,C][G,A,] | D,[^F,A,][A,D][F,A,][A,D][F,A,] | %76
 D,[G,B,][B,D][G,B,][B,D][G,B,] | D,[^F,A,][A,D][F,A,][A,D][F,A,] | %78
 A,,[G,A,][A,^C][G,A,][A,C][G,A,] | D,[^F,A,][A,D][F,A,][A,D][F,A,] | %80
 D,,[D,^F,][F,A,][D,F,][F,A,][D,F,] | !fermata!D,,6 || %82

